svgs/thin/signal-bars.svg

<svg xmlns="http://www.w3.org/2000/svg" viewBox="0 0 640 512"><!--! Font Awesome Pro 6.6.0 by @fontawesome - https://fontawesome.com License - https://fontawesome.com/license (Commercial License) Copyright 2024 Fonticons, Inc. --><path d="M560 16c-17.7 0-32 14.3-32 32l0 416c0 17.7 14.3 32 32 32s32-14.3 32-32l0-416c0-17.7-14.3-32-32-32zM512 48c0-26.5 21.5-48 48-48s48 21.5 48 48l0 416c0 26.5-21.5 48-48 48s-48-21.5-48-48l0-416zM432 464l0-288c0-17.7-14.3-32-32-32s-32 14.3-32 32l0 288c0 17.7 14.3 32 32 32s32-14.3 32-32zM400 128c26.5 0 48 21.5 48 48l0 288c0 26.5-21.5 48-48 48s-48-21.5-48-48l0-288c0-26.5 21.5-48 48-48zM240 272c-17.7 0-32 14.3-32 32l0 160c0 17.7 14.3 32 32 32s32-14.3 32-32l0-160c0-17.7-14.3-32-32-32zm-48 32c0-26.5 21.5-48 48-48s48 21.5 48 48l0 160c0 26.5-21.5 48-48 48s-48-21.5-48-48l0-160zM112 432c0-17.7-14.3-32-32-32s-32 14.3-32 32l0 32c0 17.7 14.3 32 32 32s32-14.3 32-32l0-32zm-80 0c0-26.5 21.5-48 48-48s48 21.5 48 48l0 32c0 26.5-21.5 48-48 48s-48-21.5-48-48l0-32z"/></svg>

<svg xmlns="http://www.w3.org/2000/svg" viewBox="0 0 640 512"><!--! Font Awesome Pro 6.5.2 by @fontawesome - https://fontawesome.com License - https://fontawesome.com/license (Commercial License) Copyright 2024 Fonticons, Inc. --><path d="M560 16c-17.7 0-32 14.3-32 32V464c0 17.7 14.3 32 32 32s32-14.3 32-32V48c0-17.7-14.3-32-32-32zM512 48c0-26.5 21.5-48 48-48s48 21.5 48 48V464c0 26.5-21.5 48-48 48s-48-21.5-48-48V48zM432 464V176c0-17.7-14.3-32-32-32s-32 14.3-32 32V464c0 17.7 14.3 32 32 32s32-14.3 32-32zM400 128c26.5 0 48 21.5 48 48V464c0 26.5-21.5 48-48 48s-48-21.5-48-48V176c0-26.5 21.5-48 48-48zM240 272c-17.7 0-32 14.3-32 32V464c0 17.7 14.3 32 32 32s32-14.3 32-32V304c0-17.7-14.3-32-32-32zm-48 32c0-26.5 21.5-48 48-48s48 21.5 48 48V464c0 26.5-21.5 48-48 48s-48-21.5-48-48V304zM112 432c0-17.7-14.3-32-32-32s-32 14.3-32 32v32c0 17.7 14.3 32 32 32s32-14.3 32-32V432zm-80 0c0-26.5 21.5-48 48-48s48 21.5 48 48v32c0 26.5-21.5 48-48 48s-48-21.5-48-48V432z"/></svg>
